Automatic/src/svg/Apple-Bandai - Pippin-content.svg

<svg xmlns="http://www.w3.org/2000/svg" xml:space="preserve" width="320" height="320"><defs><clipPath id="a" clipPathUnits="userSpaceOnUse"><path d="M0 256h256V0H0Z"/></clipPath></defs><g clip-path="url(#a)" transform="matrix(1.33333 0 0 -1.33333 -10.667 330.667)"><path d="M0 0c-64.071 0-116 51.935-116 116 0 64.066 51.929 116 116 116 64.051 0 116-51.934 116-116C116 51.935 64.051 0 0 0m84.848 200.854C62.181 223.518 32.048 236 0 236c-32.055 0-62.191-12.482-84.855-35.147S-120 148.054-120 116s12.481-62.188 35.145-84.854C-62.191 8.482-32.055-4 0-4 32.048-4 62.181 8.482 84.848 31.146 107.516 53.813 120 83.948 120 116s-12.484 62.187-35.152 84.854" style="fill:#fff;fill-opacity:1;fill-rule:nonzero;stroke:none" transform="translate(128 12)"/><path d="M0 0c-5.396 0-9.786 4.385-9.786 9.775 0 5.396 4.39 9.786 9.786 9.786 5.391 0 9.777-4.39 9.777-9.786C9.777 4.385 5.391 0 0 0m0 23.561c-7.596 0-13.786-6.181-13.786-13.786C-13.786 2.176-7.596-4 0-4 7.6-4 13.777 2.176 13.777 9.775 13.777 17.38 7.6 23.561 0 23.561" style="fill:#fff;fill-opacity:1;fill-rule:nonzero;stroke:none" transform="translate(128.002 118.225)"/><path d="M0 0c-25.364 0-46.003 20.651-46.003 46S-25.364 92 0 92c25.337 0 45.997-20.651 45.997-46S25.337 0 0 0m0 96c-27.572 0-50.003-22.43-50.003-50S-27.572-4 0-4c27.568 0 49.997 22.43 49.997 50S27.568 96 0 96" style="fill:#fff;fill-opacity:1;fill-rule:nonzero;stroke:none" transform="translate(128.003 82)"/></g></svg>

<?xml version="1.0" encoding="UTF-8" standalone="no"?>
<svg
   xmlns:dc="http://purl.org/dc/elements/1.1/"
   xmlns:cc="http://creativecommons.org/ns#"
   xmlns:rdf="http://www.w3.org/1999/02/22-rdf-syntax-ns#"
   xmlns:svg="http://www.w3.org/2000/svg"
   xmlns="http://www.w3.org/2000/svg"
   viewBox="0 0 320 320"
   height="320"
   width="320"
   xml:space="preserve"
   id="svg2"
   version="1.1"><metadata
     id="metadata8"><rdf:RDF><cc:Work
         rdf:about=""><dc:format>image/svg+xml</dc:format><dc:type
           rdf:resource="http://purl.org/dc/dcmitype/StillImage" /></cc:Work></rdf:RDF></metadata><defs
     id="defs6"><clipPath
       id="clipPath18"
       clipPathUnits="userSpaceOnUse"><path
         id="path16"
         d="M 0,256 H 256 V 0 H 0 Z" /></clipPath></defs><g
     transform="matrix(1.3333333,0,0,-1.3333333,-10.666666,330.66666)"
     id="g10"><g
       id="g12"><g
         clip-path="url(#clipPath18)"
         id="g14"><g
           transform="translate(128,12)"
           id="g20"><path
             id="path22"
             style="fill:#ffffff;fill-opacity:1;fill-rule:nonzero;stroke:none"
             d="m 0,0 c -64.071,0 -116,51.935 -116,116 0,64.066 51.929,116 116,116 64.051,0 116,-51.934 116,-116 C 116,51.935 64.051,0 0,0 M 84.848,200.854 C 62.181,223.518 32.048,236 0,236 -32.055,236 -62.191,223.518 -84.855,200.853 -107.519,178.189 -120,148.054 -120,116 -120,83.946 -107.519,53.812 -84.855,31.146 -62.191,8.482 -32.055,-4 0,-4 32.048,-4 62.181,8.482 84.848,31.146 107.516,53.813 120,83.948 120,116 c 0,32.052 -12.484,62.187 -35.152,84.854" /></g><g
           transform="translate(128.0024,118.2246)"
           id="g24"><path
             id="path26"
             style="fill:#ffffff;fill-opacity:1;fill-rule:nonzero;stroke:none"
             d="m 0,0 c -5.396,0 -9.786,4.385 -9.786,9.775 0,5.396 4.39,9.786 9.786,9.786 5.391,0 9.777,-4.39 9.777,-9.786 C 9.777,4.385 5.391,0 0,0 M 0,23.561 C -7.596,23.561 -13.786,17.38 -13.786,9.775 -13.786,2.176 -7.596,-4 0,-4 7.6,-4 13.777,2.176 13.777,9.775 13.777,17.38 7.6,23.561 0,23.561" /></g><g
           transform="translate(128.0034,82)"
           id="g28"><path
             id="path30"
             style="fill:#ffffff;fill-opacity:1;fill-rule:nonzero;stroke:none"
             d="M 0,0 C -25.364,0 -46.003,20.651 -46.003,46 -46.003,71.349 -25.364,92 0,92 25.337,92 45.997,71.349 45.997,46 45.997,20.651 25.337,0 0,0 M 0,96 C -27.572,96 -50.003,73.57 -50.003,46 -50.003,18.43 -27.572,-4 0,-4 27.568,-4 49.997,18.43 49.997,46 49.997,73.57 27.568,96 0,96" /></g></g></g></g></svg>
